X: 3021
M: 3/2
L: 1/8
K: Bb
d2(cB) f2(ed) e3f | g3f eded c3B |\
e2(dc) =e2fg g3f/g/ | a2 f4 f2 b3a |\
g3f/e/ d2e2 c3B | c2 F4 f2 a3g |\
f3e/d/ c2de c3B | B8- HB3 |]


